X: 8
T: The Mist On The Mountain
R: waltz
M: 3/4
L: 1/8
K: Amin
"Am"A6|A6|"C"e3 e e2|"Em"e2 d2 B2|"G"G6|G6|"Bm"B3 A B2|"Am"A3 G A2|
"Am"c6|"G"d6|"C"e3 ^f g2|"Em"B3 A G2|"Am"A3 B e2|"G"d2 c2 B2|"Am"A6|A6||
"Am"e6|e6|"G"d3 e g2|"Am"e3 d B2|"G"G4 G2|"Bm"d4 B2|"Am"e4 e2|"Bm"d3 c B2|
"Am"A6|c6|"G"d3 e g2|"Em"B3 A G2|"Am"A3 B e2|"G"d2 c2 B2|"Am"A6|A6|]


Tune 470	Setting 16907

